frontend/public/svg/interface/link.svg

<svg width="160" height="160" viewBox="0 0 160 160" fill="none" xmlns="http://www.w3.org/2000/svg">
<g clip-path="url(#clip0)">
<path d="M14.0332 123.863C14.6452 119.927 16.2813 116.417 17.8012 113.502C20.3646 108.585 24.0684 104.396 27.6507 100.346C28.2361 99.6834 28.8201 99.0201 29.4029 98.3561C36.358 90.3885 43.5507 82.1566 51.7512 74.7597C57.6822 69.4104 64.5361 67.3621 72.6986 68.4963C73.2574 68.5747 73.8175 68.6453 74.3788 68.7159C77.5867 69.1214 80.6175 69.5043 83.3808 71.0997C84.0317 71.447 84.7339 71.6873 85.4614 71.8123C85.8956 71.8913 86.3415 71.881 86.7717 71.7831C87.202 71.6847 87.6083 71.5007 87.9652 71.241C88.3877 70.9501 88.7479 70.577 89.0237 70.1443C89.3002 69.7116 89.4858 69.2277 89.5714 68.7218C89.7343 67.7365 89.637 66.7253 89.2898 65.7886C88.9426 64.8526 88.3565 64.0222 87.5901 63.3804C85.1765 61.2042 82.2113 59.7303 79.0164 59.1192C75.5158 58.3851 71.975 57.8563 68.4128 57.5355C60.53 56.8087 53.6741 58.8562 48.0345 63.6245C42.5591 68.166 37.3173 72.9809 32.3292 78.051C27.0757 83.4988 22.0637 89.341 17.2171 94.9903L15.0755 97.4849C10.8585 102.44 7.37084 107.969 4.71777 113.906C2.56713 118.655 1.39729 123.788 1.27814 128.999V129.015C1.25868 139.891 5.39074 148.112 13.5607 153.451C19.9136 157.602 26.4949 159.682 33.2339 159.682C37.3645 159.657 41.4595 158.918 45.3373 157.497C47.8547 156.598 50.0989 155.734 52.1977 154.855C59.5921 151.76 66.1322 146.758 73.4021 138.637C77.6464 133.898 81.822 128.961 85.8625 124.185C87.9146 121.76 89.9719 119.338 92.035 116.922C92.7235 116.119 93.453 115.321 94.1591 114.548C95.3746 113.219 96.6317 111.843 97.744 110.377C98.8908 108.928 99.7104 107.249 100.148 105.454C100.284 104.775 100.235 104.071 100.008 103.417C99.7792 102.763 99.3801 102.182 98.8505 101.733C98.2781 101.222 97.5811 100.87 96.8296 100.713C96.0775 100.557 95.2974 100.6 94.5679 100.84C93.2265 101.287 91.9882 101.997 90.9265 102.929C89.6428 104.139 88.4403 105.433 87.3273 106.8L86.8224 107.393C84.2174 110.437 81.6182 113.486 79.0249 116.538C74.6559 121.673 70.1377 126.983 65.6504 132.166C58.5765 140.334 49.7589 145.356 39.4317 147.092C35.7992 147.769 32.0618 147.636 28.4866 146.703C17.8998 143.753 13.6068 138.063 13.6685 127.065C13.6999 126.139 13.8 125.217 13.9682 124.306L14.0332 123.863Z" fill="black"/>
<path d="M141.121 1.13861C136.365 0.0153755 131.522 0.0373656 126.836 0.0671629L125.721 0.072382C120.356 0.0931108 115.346 1.7203 110.406 5.04597C102.387 10.3326 94.9975 16.5121 88.3785 23.4654C83.9337 28.2052 79.2837 33.4062 74.1659 39.3644C71.6608 42.2794 69.3505 46.0285 71.2143 51.7108C71.2422 51.7949 71.287 51.8727 71.3454 51.9395C71.4038 52.0062 71.4752 52.0606 71.555 52.0995C71.6355 52.1382 71.7231 52.1606 71.812 52.1655C71.9009 52.1703 71.9905 52.1576 72.0742 52.128C76.5522 50.5221 79.762 48.6385 82.4761 46.0189L82.6227 45.877C86.0357 42.5818 89.5668 39.1739 92.852 35.6384C100.856 27.0269 108.06 20.588 115.523 15.3721C119.21 12.7145 123.64 11.2813 128.186 11.2756C131.696 11.2106 135.204 11.5049 138.653 12.1539C143.758 13.1807 149.296 16.9248 149.519 24.3522C149.704 30.4373 148.473 35.12 145.644 39.0909C144.492 40.7071 143.355 42.3376 142.217 43.9687C138.597 49.1612 134.853 54.5275 130.662 59.3436C125.387 65.403 118.116 73.004 108.629 78.0527C100.855 82.1933 92.0239 83.9403 83.2542 83.0742C79.5998 82.8352 76.144 81.3291 73.4838 78.8164C72.3422 77.7171 71.117 76.7086 69.819 75.7984C68.0499 74.5852 65.9848 74.6415 64.6799 75.9416C63.9843 76.5544 63.5145 77.3823 63.346 78.293C63.1776 79.2038 63.32 80.1444 63.7505 80.9651C64.4147 82.4051 65.2101 83.7816 66.1263 85.0771C69.1077 89.0797 73.3949 91.7544 79.2357 93.252C81.9063 93.927 84.6521 94.2626 87.4064 94.2503C91.6481 94.1712 95.8652 93.5863 99.968 92.5091C108.34 90.488 116.08 86.0216 123.632 78.854C136.381 66.7542 146.541 52.6495 153.969 41.7138C157.304 36.7991 159.145 31.0271 159.269 25.0926C159.412 20.3853 159.034 14.3758 154.806 9.65613C150.757 5.14374 146.284 2.35772 141.121 1.13861Z" fill="black"/>
</g>
<defs>
<clipPath id="clip0">
<rect width="159" height="160" fill="white" transform="translate(0.777344)"/>
</clipPath>
</defs>
</svg>

<svg xmlns="http://www.w3.org/2000/svg" width="160" height="160" fill="none" viewBox="0 0 160 160"><g fill="#000" clip-path="url(#a)"><path d="M14.033 123.863c.612-3.936 2.248-7.446 3.768-10.361 2.564-4.917 6.267-9.106 9.85-13.156q.878-.994 1.752-1.99c6.955-7.968 14.148-16.2 22.348-23.596 5.931-5.35 12.785-7.398 20.948-6.264q.837.117 1.68.22c3.208.405 6.239.788 9.002 2.384a6.9 6.9 0 0 0 2.08.712 3.27 3.27 0 0 0 2.504-.571 3.83 3.83 0 0 0 1.606-2.52 5.75 5.75 0 0 0-1.98-5.34 17.8 17.8 0 0 0-8.575-4.262 92 92 0 0 0-10.603-1.584c-7.883-.726-14.739 1.321-20.378 6.09A211 211 0 0 0 32.329 78.05c-5.253 5.448-10.265 11.29-15.112 16.94l-2.141 2.494a68.4 68.4 0 0 0-10.358 16.421 38.7 38.7 0 0 0-3.44 15.093v.016c-.02 10.876 4.113 19.097 12.283 24.436 6.353 4.151 12.934 6.231 19.673 6.231a35.8 35.8 0 0 0 12.103-2.185 137 137 0 0 0 6.86-2.642c7.395-3.095 13.935-8.097 21.205-16.218 4.244-4.739 8.42-9.676 12.46-14.452q3.079-3.638 6.173-7.263c.689-.803 1.418-1.601 2.124-2.374 1.216-1.329 2.473-2.705 3.585-4.171a12.8 12.8 0 0 0 2.404-4.923 3.9 3.9 0 0 0-.14-2.037 3.9 3.9 0 0 0-1.157-1.684 4.38 4.38 0 0 0-4.283-.893 10.6 10.6 0 0 0-3.641 2.089 40 40 0 0 0-3.6 3.871l-.505.593a3416 3416 0 0 0-7.797 9.145c-4.37 5.135-8.887 10.445-13.375 15.628-7.074 8.168-15.891 13.19-26.218 14.926a25.1 25.1 0 0 1-10.945-.389c-10.587-2.95-14.88-8.64-14.818-19.638a19 19 0 0 1 .3-2.759z"/><path d="M141.121 1.139C136.365.015 131.522.037 126.836.067l-1.115.005c-5.365.021-10.375 1.648-15.315 4.974a126.7 126.7 0 0 0-22.028 18.42c-4.444 4.74-9.094 9.94-14.212 15.898-2.505 2.915-4.815 6.665-2.952 12.347a.667.667 0 0 0 .86.417c4.478-1.606 7.688-3.49 10.402-6.11l.147-.141c3.413-3.295 6.944-6.703 10.229-10.239 8.004-8.611 15.208-15.05 22.671-20.266a21.7 21.7 0 0 1 12.663-4.096c3.51-.065 7.018.229 10.467.878 5.105 1.027 10.643 4.77 10.866 12.198.185 6.085-1.046 10.768-3.875 14.739-1.152 1.616-2.289 3.247-3.427 4.878-3.62 5.192-7.364 10.559-11.555 15.375-5.275 6.059-12.546 13.66-22.033 18.709a44.65 44.65 0 0 1-25.375 5.021 15.72 15.72 0 0 1-9.77-4.258 31 31 0 0 0-3.665-3.018c-1.77-1.213-3.834-1.157-5.14.144a4.14 4.14 0 0 0-.928 5.023 26 26 0 0 0 2.375 4.112c2.982 4.003 7.269 6.677 13.11 8.175a32.8 32.8 0 0 0 8.17.998 53.4 53.4 0 0 0 12.562-1.74c8.372-2.022 16.112-6.488 23.664-13.656 12.749-12.1 22.909-26.204 30.337-37.14a30.74 30.74 0 0 0 5.3-16.621c.143-4.708-.235-10.717-4.463-15.437-4.049-4.512-8.522-7.298-13.685-8.517"/></g><defs><clipPath id="a"><path fill="#fff" d="M.777 0h159v160h-159z"/></clipPath></defs></svg>
